X:1
T:Mazurka du barbary
C:Trad.
R:Mazurka
D:The Jockey Morris Men, Five More Men, 2000
Z:Bert Van Vreckem <bert.vanvreckem@gmail.com> 2009-03-22
M:3/4
L:1/4
K:G
"G"D G/F/ G|"Bm"D B/A/ B|"Am"c/B/ A/G/ F/G/|"D"A/G/ F/E/ D|
"G"D G/F/ G|"Bm"D B/A/ B|"Am"c/B/ A/G/ "D"F/A/|"G"G G2:|
|:"G"d d/e/ d/c/|"Em"B G A/B/|"C"c c/d/ c/B/|"D"A2 B/c/|
"G"d d/e/ d/c/|"Em"B G A/B/|"C"c/B/ A/G/ "D"F/A/|"G"G G2:|
